icons/bsconfig.svg

<svg width="16" height="16" viewBox="0 0 16 16" fill="none" xmlns="http://www.w3.org/2000/svg">
<path d="M2.5 4C2.5 3.17157 3.17157 2.5 4 2.5H12C12.8284 2.5 13.5 3.17157 13.5 4V12C13.5 12.8284 12.8284 13.5 12 13.5H4C3.17157 13.5 2.5 12.8284 2.5 12V4Z" stroke="#D94851"/>
<path d="M5 6C5 5.44772 5.44772 5 6 5H8V10C8 10.5523 7.55228 11 7 11H6C5.44772 11 5 10.5523 5 10V6Z" fill="#D94851"/>
<path d="M12 6.5C12 7.32843 11.3284 8 10.5 8C9.67157 8 9 7.32843 9 6.5C9 5.67157 9.67157 5 10.5 5C11.3284 5 12 5.67157 12 6.5Z" fill="#D94851"/>
</svg>

<svg xmlns="http://www.w3.org/2000/svg" width="16" height="16" fill="none"><path stroke="#D94851" d="M2.5 4A1.5 1.5 0 0 1 4 2.5h8A1.5 1.5 0 0 1 13.5 4v8a1.5 1.5 0 0 1-1.5 1.5H4A1.5 1.5 0 0 1 2.5 12V4Z"/><path fill="#D94851" d="M5 6a1 1 0 0 1 1-1h2v5a1 1 0 0 1-1 1H6a1 1 0 0 1-1-1V6ZM12 6.5a1.5 1.5 0 1 1-3 0 1.5 1.5 0 0 1 3 0Z"/></svg>
